X: 20952
Q: "Larghetto"
M: 6/8
L: 1/8
K: G
d |\
e2e e>fg | d2d d2c | B2B B>^cd | A2A A2d |\
e2e e>fg | d2d d2c | B>cd g2B | {B}AGA G2 |]
c3 A3 | B2d B2B | c3 A3 | B2d B2d |\
e2e e>fg | d2d Hd2c | B>cd g2b | aba g2 |]


